X:1
T: Foula Reel
N:
C:aka The Shaalds of Foula
S:often played: 4 x #1, 4 x #2
A:
O:
R:
M:6/8
K:G
I:speed 150
%W: A1                                                          TUNE #1
% voice 1 (1 lines, 35 notes)
K:G
M:6/8
L:1/16
|G4 G2 G4 B2 e2 d2 B2 A4 B2 G4 G2 G4 A2 B2 A2 G2 E4 D2 |E2 G2 G2 G4 B2 e2 d2 B2 A4 B2 G4 G2 G2 A2 B2 d6 d4
%W: A2
% voice 1 (1 lines, 36 notes)
G4 |G2 G4 B2 e2 d2 B2 A4 B2 G4 G2 G4 A2 B2 A2 G2 E4 D2 E2 G2 |G2 G4 B2 e2 d2 B2 A4 B2 G4 G2 G2 A2 B2 d6 d4 B2
%W: B1
% voice 1 (1 lines, 37 notes)
d2 e2 |f2 g4 d2 e2 d2 B2 A4 B2 G4 G2 G4 A2 B2 A2 G2 E4 A2 d2 e2 |f2 g4 d2 e2 d2 B2 A4 B2 G4 G2 G2 A2 B2 d6 d4 B2
%W: B2
% voice 1 (1 lines, 36 notes)
d2 e2 |f2 g4 d2 e2 d2 B2 A4 B2 G4 G2 G4 A2 B2 A2 G2 E4 A2 d2 e2 |f2 g4 d2 e2 d2 B2 A4 B2 G4 G2 G2 A2 B2 d6 d4 ||
%W: A1                                                      TUNE #2
% voice 1 (1 lines, 35 notes)
K:A
A2 B2 A2 A4 a2 f2 e2 c2 B4 c2 A4 c2 B4 c2 A2 B2 A2 F4 E2 |A2 B2 A2 A4 a2 f2 e2 c2 B4 c2 A4 c2 B4 c2 e6 e6 |
%W: A2
% voice 1 (1 lines, 35 notes)
A2 B2 A2 A4 a2 f2 e2 c2 B4 c2 A4 c2 B4 c2 A2 B2 A2 F4 E2 |A2 B2 A2 A4 a2 f2 e2 c2 B4 c2 A4 c2 B4 c2 e6 e6 |
%W: B1
% voice 1 (1 lines, 32 notes)
a4 e2 c4 e2 f2 e2 c2 B6 a4 c2 B4 c2 A2 B2 A2 F4 A2 |a4 e2 c4 e2 f2 e2 c2 B4 c2 A4 c2 B4 c2 e6 e6 |
%W: B2
% voice 1 (1 lines, 32 notes)
a4 e2 c4 e2 f2 e2 c2 B6 a4 c2 B4 c2 A2 B2 A2 F4 A2 |a4 e2 c4 e2 f2 e2 c2 B4 c2 A4 c2 B4 c2 e6 e6 ||
